X:10
T:Maka e du Britta
O:av Röjås Jonas
R:Polska
Z:Håkan Lidén
M:9/8
L:1/4
K:D
A/ | d d f d A/ | d d f d d/ | A/c/ e f g e/ | f/d/ e c A A/ |
d d f d c/ | B e g b b/ | a g/a/ g/e/ f d/ | e/ c d3/- d :|
|: A/ | f a g f a/ | g b a g b/ | a g/a/ g/e/ f d/ | e/c/ d B A A/ |
f a g f a/ | g b a g f/ | e/d/ c B A g/ | e/ c d3/- d :|]

